X: 29499
T: Nina
R: mazurka
M: 3/4
K: Adorian
ec Bc ec|Bc A4|Bc BA EA|Bc BA Bc|
ec Bc ec|Bc A4|zA ce- ed/c/|B6:|
|:AB ce- ec|Bc ge- e2|AB ce- ed/c/|Bg B4|
AB ce- ec|Bc ge- e2|zA ce- ed/c/|B6:|

